X: 252
M: C
L: 1/8
K: G
d2cB AcBA | G2GG G2 :|\
d2 |\
g2fe d2cB | e2e2 d2Bc |
d2cB A2G2 | AGFE D2d2 |\
g2fe d2cB | e2e2 d2c2 |\

